X:419
T: WILHELM KOMM AN MEINE SEITE
N: E0347A
O: Europa, Mitteleuropa, Deutschland, Hessen, Westfalen
R: historisches Lied, Tod Koenigin Louise (1810)
M: 4/4
L: 1/8
K: C
 | G,3G,G,G,G,G, | ECC2z2
B,C | D3CB,2A,B, | C4z2
E,F, | G,3EE2DC | CA,A,2z2
CA, | G,3CB,2A,B, | C4z4

@@@ Tune index: 4069
